X: 1
T: La Petite Valse Francaise
R: waltz
M: 3/4
L: 1/8
K: Amin
cd|e2d2c2|B2A2c2|B6|B4 cd|e2d2c2|B2A2c2|
B6|B4 cB|c2d2e2|a6|a2f2e2|
d2e2f2|e2d2c2|B2c2A2|e6|e4 cd|e2d2c2|
B2A2c2|B6|B4 cB|c2d2e2|_b2a2e2|
f6|f4 fg|a2g2f2|e2d2 df|e2c2B2|
A2B2c2|B3 B B2|B2c2B2|A6|A4 A,2||
|:D3 F ED|A,4 AB|[M:6/8] cBA dcB|cBA GFE|
[M:3/4]D3 F ED|A,4 AB|[M:6/8]cBA dcB|1 [M:3/4]A4 A,2:|2 [M:3/4] A4 de||
|:f2 ef ed|_B4 de|f2 gf ed|^c4 de|
f2 ef ed|_B4 de|f2 gf e^c|1 d4 de:|2 d4 cd||

